packages/ui-kit/src/icons/svg/open-source.svg

<?xml version="1.0" encoding="UTF-8"?>
<svg width="80px" height="80px" viewBox="0 0 80 80" version="1.1" xmlns="http://www.w3.org/2000/svg" xmlns:xlink="http://www.w3.org/1999/xlink">
    <title>open_source_80x80</title>
    <g id="Color-Scheme---Products-/-Solution" stroke="none" stroke-width="1" fill="none" fill-rule="evenodd">
        <g id="Icon-final" transform="translate(-453.000000, -17.000000)" fill-rule="nonzero">
            <g id="open_source_80x80" transform="translate(453.000000, 17.000000)">
                <path d="M32.8667948,15.4887484 L32.8667948,17.9887484 L19.3667948,17.9887484 C18.7977936,17.9887484 18.2891502,18.4594585 18.2238599,19.017883 L18.2167948,19.1387484 L18.2167948,39.8387484 L15.7167948,39.8387484 L15.7167948,19.1387484 C15.7167948,17.2125975 17.271092,15.5961663 19.1752567,15.4938848 L19.3667948,15.4887484 L32.8667948,15.4887484 Z" id="Path" fill="#808080"></path>
                <path d="M18.3167948,47.2387484 L18.3167948,60.6387484 C18.3167948,61.2077495 18.7875048,61.716393 19.3459294,61.7816832 L19.4667948,61.7887484 L40.1667948,61.7887484 L40.1667948,64.2887484 L19.4667948,64.2887484 C17.5406439,64.2887484 15.9242127,62.7344512 15.8219311,60.8302865 L15.8167948,60.6387484 L15.8167948,47.2387484 L18.3167948,47.2387484 Z" id="Path" fill="#808080"></path>
                <path d="M64.6167948,39.8387484 L64.6167948,60.5387484 C64.6167948,62.4648993 63.0624975,64.0813305 61.1583328,64.183612 L60.9667948,64.1887484 L47.4667948,64.1887484 L47.4667948,61.6887484 L60.9667948,61.6887484 C61.5357959,61.6887484 62.0444394,61.2180383 62.1097296,60.6596138 L62.1167948,60.5387484 L62.1167948,39.8387484 L64.6167948,39.8387484 Z" id="Path" fill="#808080"></path>
                <path d="M60.8667948,15.3887484 C62.7929457,15.3887484 64.4093768,16.9430457 64.5116584,18.8472103 L64.5167948,19.0387484 L64.5167948,32.4387484 L62.0167948,32.4387484 L62.0167948,19.0387484 C62.0167948,18.4697473 61.5460847,17.9611038 60.9876602,17.8958136 L60.8667948,17.8887484 L40.1667948,17.8887484 L40.1667948,15.3887484 L60.8667948,15.3887484 Z" id="Path" fill="#808080"></path>
                <path d="M40.1667948,3.18874841 C36.1075019,3.18874841 32.8167948,6.4794555 32.8167948,10.5387484 C32.8167948,14.5980413 36.1075019,17.8887484 40.1667948,17.8887484 C44.2260877,17.8887484 47.5167948,14.5980413 47.5167948,10.5387484 C47.5167948,6.4794555 44.2260877,3.18874841 40.1667948,3.18874841 Z M40.1667948,5.68874841 C42.8453758,5.68874841 45.0167948,7.86016737 45.0167948,10.5387484 C45.0167948,13.2173294 42.8453758,15.3887484 40.1667948,15.3887484 C37.4882137,15.3887484 35.3167948,13.2173294 35.3167948,10.5387484 C35.3167948,7.86016737 37.4882137,5.68874841 40.1667948,5.68874841 Z" id="Oval" fill="#808080"></path>
                <path d="M69.4667948,32.4887484 C65.4075019,32.4887484 62.1167948,35.7794555 62.1167948,39.8387484 C62.1167948,43.8980413 65.4075019,47.1887484 69.4667948,47.1887484 C73.5260877,47.1887484 76.8167948,43.8980413 76.8167948,39.8387484 C76.8167948,35.7794555 73.5260877,32.4887484 69.4667948,32.4887484 Z M69.4667948,34.9887484 C72.1453758,34.9887484 74.3167948,37.1601674 74.3167948,39.8387484 C74.3167948,42.5173294 72.1453758,44.6887484 69.4667948,44.6887484 C66.7882137,44.6887484 64.6167948,42.5173294 64.6167948,39.8387484 C64.6167948,37.1601674 66.7882137,34.9887484 69.4667948,34.9887484 Z" id="Oval" fill="#808080"></path>
                <path d="M40.1667948,61.7887484 C36.1075019,61.7887484 32.8167948,65.0794555 32.8167948,69.1387484 C32.8167948,73.1980413 36.1075019,76.4887484 40.1667948,76.4887484 C44.2260877,76.4887484 47.5167948,73.1980413 47.5167948,69.1387484 C47.5167948,65.0794555 44.2260877,61.7887484 40.1667948,61.7887484 Z M40.1667948,64.2887484 C42.8453758,64.2887484 45.0167948,66.4601674 45.0167948,69.1387484 C45.0167948,71.8173294 42.8453758,73.9887484 40.1667948,73.9887484 C37.4882137,73.9887484 35.3167948,71.8173294 35.3167948,69.1387484 C35.3167948,66.4601674 37.4882137,64.2887484 40.1667948,64.2887484 Z" id="Oval" fill="#808080"></path>
                <path d="M10.8667948,32.4887484 C6.80750186,32.4887484 3.51679477,35.7794555 3.51679477,39.8387484 C3.51679477,43.8980413 6.80750186,47.1887484 10.8667948,47.1887484 C14.9260877,47.1887484 18.2167948,43.8980413 18.2167948,39.8387484 C18.2167948,35.7794555 14.9260877,32.4887484 10.8667948,32.4887484 Z M10.8667948,34.9887484 C13.5453758,34.9887484 15.7167948,37.1601674 15.7167948,39.8387484 C15.7167948,42.5173294 13.5453758,44.6887484 10.8667948,44.6887484 C8.18821373,44.6887484 6.01679477,42.5173294 6.01679477,39.8387484 C6.01679477,37.1601674 8.18821373,34.9887484 10.8667948,34.9887484 Z" id="Oval" fill="#808080"></path>
                <polygon id="Path" fill="#044E7C" points="30.7829113 32.8548649 32.5506782 34.6226319 27.334 39.838 32.5506782 45.0548649 30.7829113 46.8226319 23.7990278 39.8387484"></polygon>
                <polygon id="Path" fill="#044E7C" points="49.5506782 32.8548649 56.5345617 39.8387484 49.5506782 46.8226319 47.7829113 45.0548649 52.998 39.838 47.7829113 34.6226319"></polygon>
                <polygon id="Path" fill="#044E7C" points="45.1736297 28.2325387 47.3599598 29.4449581 35.1599598 51.4449581 32.9736297 50.2325387"></polygon>
            </g>
        </g>
    </g>
</svg>

<svg viewBox="0 0 80 80" width="80px" height="80px" xmlns="http://www.w3.org/2000/svg">
  <g fill-rule="nonzero" fill="none">
    <path d="M32.867 15.489v2.5h-13.5c-.57 0-1.078.47-1.143 1.029l-.007.12v20.7h-2.5v-20.7c0-1.925 1.554-3.542 3.458-3.644l.192-.005h13.5zM18.317 47.239v13.4c0 .569.47 1.077 1.029 1.143l.12.007h20.7v2.5h-20.7c-1.925 0-3.542-1.555-3.644-3.459l-.005-.191v-13.4h2.5zM64.617 39.839v20.7c0 1.926-1.555 3.542-3.459 3.645l-.191.005h-13.5v-2.5h13.5c.569 0 1.077-.471 1.143-1.03l.007-.12v-20.7h2.5zM60.867 15.389c1.926 0 3.542 1.554 3.645 3.458l.005.192v13.4h-2.5v-13.4c0-.57-.47-1.078-1.03-1.143l-.12-.007h-20.7v-2.5h20.7z" fill="gray"/>
    <path d="M40.167 3.189a7.35 7.35 0 100 14.7 7.35 7.35 0 000-14.7zm0 2.5a4.85 4.85 0 110 9.7 4.85 4.85 0 010-9.7zM69.467 32.489a7.35 7.35 0 100 14.7 7.35 7.35 0 000-14.7zm0 2.5a4.85 4.85 0 110 9.7 4.85 4.85 0 010-9.7zM40.167 61.789a7.35 7.35 0 100 14.7 7.35 7.35 0 000-14.7zm0 2.5a4.85 4.85 0 110 9.7 4.85 4.85 0 010-9.7zM10.867 32.489a7.35 7.35 0 100 14.7 7.35 7.35 0 000-14.7zm0 2.5a4.85 4.85 0 110 9.7 4.85 4.85 0 010-9.7z" fill="gray"/>
    <path fill="#044E7C" d="M30.783 32.855l1.768 1.768-5.217 5.215 5.217 5.217-1.768 1.768-6.984-6.984zM49.55 32.855l6.985 6.984-6.984 6.984-1.768-1.768 5.215-5.217-5.215-5.215zM45.174 28.233l2.186 1.212-12.2 22-2.186-1.212z"/>
  </g>
</svg>
